server/website/public/icons/base/task.svg

<svg width="48" height="48" viewBox="0 0 48 48" fill="none" xmlns="http://www.w3.org/2000/svg">
<path d="M12.1417 1L5.50422 7.67699L2.914 5.07371L0 7.99629L4.04722 12.0639L5.50422 13.4591L6.96121 12.0619L15.0557 3.92665L12.1417 1ZM21.6931 4.49815V8.56576H48V4.49815H21.6931ZM12.1417 17.2704L5.50422 23.9495L2.914 21.3381L0 24.2667L4.04722 28.3344L5.50422 29.7295L6.96121 28.3323L15.0557 20.1971L12.1417 17.2704ZM21.6931 20.7686V24.8362H48V20.7686H21.6931ZM12.1417 33.5409L5.50422 40.2179L2.914 37.6146L0 40.5372L4.04722 44.6048L5.50422 46L6.96121 44.6028L15.0557 36.4675L12.1417 33.5389V33.5409ZM21.6931 37.039V41.1067H48V37.039H21.6931Z" fill="black"/>
</svg>

<svg width="48" height="48" fill="none" xmlns="http://www.w3.org/2000/svg"><path d="M12.142 1L5.504 7.677l-2.59-2.603L0 7.996l4.047 4.068 1.457 1.395 1.457-1.397 8.095-8.135L12.142 1zm9.551 3.498v4.068H48V4.498H21.693zM12.142 17.27l-6.638 6.68-2.59-2.612L0 24.267l4.047 4.067 1.457 1.396 1.457-1.398 8.095-8.135-2.914-2.927zm9.551 3.499v4.067H48V20.77H21.693zM12.142 33.54l-6.638 6.677-2.59-2.603L0 40.537l4.047 4.068L5.504 46l1.457-1.397 8.095-8.136-2.914-2.928v.002zm9.551 3.498v4.068H48v-4.068H21.693z" fill="#000"/></svg>
